flaticon/dialogue/chat-28.svg

<svg xmlns="http://www.w3.org/2000/svg" width="32" height="32" viewBox="0 0 24 24">
    <path d="M 22.9375 0.316406 L 5.0625 0.316406 C 4.476562 0.316406 4 0.792969 4 1.378906 L 4 5.117188 L 1.0625 5.117188 C 0.476562 5.117188 0 5.59375 0 6.179688 L 0 23.683594 L 3.765625 19.917969 L 17.738281 19.917969 C 18.324219 19.917969 18.800781 19.441406 18.800781 18.855469 L 18.800781 16.316406 L 20.234375 16.316406 L 24 20.082031 L 24 1.378906 C 24 0.792969 23.523438 0.316406 22.9375 0.316406 Z M 18 18.855469 C 18 19 17.882812 19.117188 17.738281 19.117188 L 3.433594 19.117188 L 0.800781 21.75 L 0.800781 6.179688 C 0.800781 6.035156 0.917969 5.917969 1.0625 5.917969 L 17.738281 5.917969 C 17.882812 5.917969 18 6.035156 18 6.179688 Z M 23.199219 18.152344 L 20.566406 15.515625 L 18.800781 15.515625 L 18.800781 6.179688 C 18.800781 5.59375 18.324219 5.117188 17.738281 5.117188 L 4.800781 5.117188 L 4.800781 1.378906 C 4.800781 1.234375 4.917969 1.117188 5.0625 1.117188 L 22.9375 1.117188 C 23.082031 1.117188 23.199219 1.234375 23.199219 1.378906 Z M 23.199219 18.152344"/>
    <path d="M4.398438 9.917969L9.199219 9.917969C9.421875 9.917969 9.601562 9.738281 9.601562 9.515625 9.601562 9.296875 9.421875 9.117188 9.199219 9.117188L4.398438 9.117188C4.179688 9.117188 4 9.296875 4 9.515625 4 9.738281 4.179688 9.917969 4.398438 9.917969zM14.398438 11.917969L4.398438 11.917969C4.179688 11.917969 4 12.097656 4 12.316406 4 12.539062 4.179688 12.71875 4.398438 12.71875L14.398438 12.71875C14.621094 12.71875 14.800781 12.539062 14.800781 12.316406 14.800781 12.097656 14.621094 11.917969 14.398438 11.917969zM14.398438 14.71875L4.398438 14.71875C4.179688 14.71875 4 14.894531 4 15.117188 4 15.339844 4.179688 15.515625 4.398438 15.515625L14.398438 15.515625C14.621094 15.515625 14.800781 15.339844 14.800781 15.117188 14.800781 14.894531 14.621094 14.71875 14.398438 14.71875zM14.398438 14.71875"/>
</svg>

<svg xmlns="http://www.w3.org/2000/svg" width="32" height="32" viewBox="0 0 24 24">
    <path d="M22.938.316H5.063C4.476.316 4 .793 4 1.38v3.738H1.062C.478 5.117 0 5.594 0 6.18v17.504l3.766-3.766h13.972c.586 0 1.063-.477 1.063-1.063v-2.539h1.433L24 20.082V1.379c0-.586-.477-1.063-1.063-1.063zM18 18.856a.262.262 0 0 1-.262.261H3.434L.8 21.75V6.18c0-.145.117-.262.261-.262h16.676c.145 0 .262.117.262.262zm5.2-.704l-2.634-2.636h-1.765V6.18c0-.586-.477-1.063-1.063-1.063H4.801V1.38c0-.145.117-.262.261-.262h17.875c.145 0 .262.117.262.262zm0 0"/>
    <path d="M4.398 9.918H9.2a.401.401 0 0 0 0-.8H4.4a.4.4 0 0 0 0 .8zm0 0M14.398 11.918h-10a.4.4 0 0 0 0 .8h10a.401.401 0 0 0 0-.8zm0 0M14.398 14.719h-10a.398.398 0 1 0 0 .797h10a.398.398 0 1 0 0-.797zm0 0"/>
</svg>
